!!!!SEGMENT: pl-wtm--r-1549--001_stefani-jozef--msza-no-8-kyrie.krn
!!!cenid: 18xx:1802
!!!COM: Stefani, Józef
!!!COM-rismid: pe30024097
!!!CDT: 1800/04/16-1876/03/19
!!!CNT: Polish
!!!OPR: Msza No 8
!!!OTL: Kyrie
!!!OMV: 001
!!!PDT:
!!!AGN: Sacred; Mass
!!!SMS-siglum: PL-Wtm
!!!SMS-shelfmark: R 1549
!!!SMS-shelfwork: 001-001 M
!!!SMS-variant:
!!!SMS-altvar:
!!!NIFC-rismid: 1001115167
!!!URL-scan: http://repozytorium.nifc.pl/skany/pl-wtm-nut--r1549
!!!ONB-nifc: UWAGA: części Mszy: 1. Kyrie, 2. Gloria, 3. Credo, 4. Sanctus, 5. Benedictus Terzetto, 6. Agnus Dei. W źródle Benedictus wpisany po Agnus Dei
**kern	**dynam	**kern	**dynam	**kern	**dynam	**kern	**dynam	**kern	**text	**kern	**text	**kern	**text
*part5	*part5	*part4	*part4	*part3	*part3	*part2	*part2	*part1	*part1	*part1	*part1	*part1	*part1
*staff7	*	*staff6	*	*staff5	*	*staff4	*	*staff3	*staff3	*staff2	*staff2	*staff1	*staff1
*Iempty	*	*Iviola	*	*Ivioln	*	*Ivioln	*	*Ivox	*	*Iempty	*	*Iempty	*
*I"Basſo	*	*I"Viole	*	*I"Violini	*	*I"Violini	*	*I"Voce	*	*	*	*	*
*I'Vc.	*	*I'Va	*	*I'Vn II	*	*I'Vn I	*	*I'Voce	*	*	*	*	*
*clefF4	*	*clefC3	*	*clefG2	*	*clefG2	*	*clefG2	*	*clefG2	*	*clefG2	*
*k[f#]	*	*k[f#]	*	*k[f#]	*	*k[f#]	*	*k[f#]	*	*k[f#]	*	*k[f#]	*
*G:	*	*G:	*	*G:	*	*G:	*	*G:	*	*G:	*	*G:	*
*M6/8	*	*M6/8	*	*M6/8	*	*M6/8	*	*M6/8	*	*M6/8	*	*M6/8	*
*	*	*	*	*	*above	*	*below	*	*	*	*	*	*
*>[A,A,A]	*	*	*	*	*	*	*	*	*	*	*	*	*
!	!	!	!	!	!	!	!	!	!	!	!	!LO:TX:a:B:t=Andantino	!
8GG/	sf	8g\ 8G\	.	8b\	.	8gg\	sf	8r	.	8r	.	8r	.
=1	=1	=1	=1	=1	=1	=1	=1	=1	=1	=1	=1	=1	=1
!LO:TX:a:i:t=Celli	!	!	!	!	!	!LO:TX:t=P:problem:mixed beam	!	!	!	!	!	!	!
(>8C/L	.	(4g\ 4G'\	.	(8cc/L	.	(8ee\L	.	2.r	.	2.r	.	2.r	.
8E/)	.	.	.	8g/J)	.	8g/J)	.	.	.	.	.	.	.
8GG'/J	sf	8g\ 8G'\	.	8b'\	.	8gg'\	sf	.	.	.	.	.	.
!	!	!	!	!	!	!LO:TX:t=P:problem:mixed beam	!	!	!	!	!	!	!
(8C\L	.	4g\ 4G'\)	.	(8cc/L	.	(8ee\L	.	.	.	.	.	.	.
8E\)	.	.	.	8g/)	.	8g/J)	.	.	.	.	.	.	.
8C'\J	.	8c\	.	8g'/J	.	8ee'\	.	.	.	.	.	.	.
=2	=2	=2	=2	=2	=2	=2	=2	=2	=2	=2	=2	=2	=2
4.D\	.	4.A/	.	4.f#/	.	(4dd\	.	4r	.	4r	.	4r	.
.	.	.	.	.	.	8cc\)	.	8r	.	8r	.	8r	.
4.G\	.	4.G/	.	8.g/L	.	8.b\L	.	4r	.	4r	.	4r	.
.	.	.	.	16a/K	.	16cc\K	.	.	.	.	.	.	.
.	.	.	.	8b/J	.	8dd\J	.	8g/	3.) Spraw	8b\	2.) Ze-	8dd\	1.) Z od-
=3	=3	=3	=3	=3	=3	=3	=3	=3	=3	=3	=3	=3	=3
8.C\L	.	4g\	.	4cc\	.	4ee\	.	8.c/L	-Bo-	4cc\	bra-	4ee\	gło-
16E\K	.	.	.	.	.	.	.	16e/Jk	.	.	.	.	.
8G\J	.	8g\	.	8b\	.	8dd\	.	8g/	-że	8b\	-ni	8dd\	-sem
4F#\	.	4.d\	.	4a/	.	8.dd\L	.	4f#/	byś-	4a/	dziś	8dd\L	wdzięcz-
.	.	.	.	.	.	.	.	.	.	.	.	8cc\J	.
.	.	.	.	.	.	16cc\K	.	.	.	.	.	.	.
8G\	.	.	.	8g/	.	8b\J	.	8g/	-my	8g/	po-	8b\	-nych
=4	=4	=4	=4	=4	=4	=4	=4	=4	=4	=4	=4	=4	=4
*^	*	*	*	*	*	*	*	*	*	*	*	*	*
8C/L	4.C\	.	4.e\ 4.c\	.	4.e/	.	8.a/L	.	4.c/	-zgo-	4.e/	spo-	(8.a/L	pie-
8c/	.	.	.	.	.	.	.	.	.	.	.	.	.	.
.	.	.	.	.	.	<	32b/LL	<	.	.	.	.	32b/LL	.
.	.	.	.	.	.	.	32a/JJJ	.	.	.	.	.	32a/JJJ	.
8c/J	.	.	.	.	.	.	16g/LL	.	.	.	.	.	16g/LL	.
.	.	.	.	.	.	.	16a/JJ	.	.	.	.	.	16a/JJ)	.
4B/	4.BB\	.	4f#\ 4B\	.	4d#X/	[ >	4b/	[ >	4B/	-dni	4d#X/	-łu	4b/	-ni
8A/	.	.	8f#\ 8A\	.	8dn/	]	8cc/	]	8A/	Jak	8dn/	skła-	8cc/	ku
*v	*v	*	*	*	*	*	*	*	*	*	*	*	*	*
!!LO:LB:g=original
=5	=5	=5	=5	=5	=5	=5	=5	=5	=5	=5	=5	=5	=5
(8G\L	.	(8g\L 8G\	.	4g/	.	(8b\L	.	8G/L	-bra-	4g/	-da-	(8b\L	To-
8c\)	.	(8c\)	.	.	.	8ee\)	.	8c/J	.	.	.	8ee\J)	.
[8B\J|	.	[<8B'\J)	.	[8g/	.	[8dd'\J	.	8B/	-cia	8g/	-my	8dd\	-bie
8B\L]|	.	8B/L]	.	8g/L]	.	8dd\L]	.	8B/L	wiecz-	8g/L	Ci	8dd\L	się
(8A\	.	(8A/	.	(8f#/|	.	(8cc\|	.	8A/J	.	8f#/J	.	8cc\J	.
8G\J)	.	8G/J)	.	8g/J)	.	8b\J)	.	8G/	-nie	8g/	o-	8b\	wzno-
=6	=6	=6	=6	=6	=6	=6	=6	=6	=6	=6	=6	=6	=6
8d\	.	8d\	.	(8.g/L	.	(8.b\L	.	4.d/	-ży-	(8.g/L	fia-	(8.b\L	sie-
8r	.	8r	.	.	.	.	.	.	.	.	.	.	.
.	.	.	.	16a/L	.	16cc\L	.	.	.	16a/L	.	16cc\L	.
8r	.	8r	.	16a#X/	.	16cc#X\	.	.	.	16a#X/	.	16cc#X\	.
.	.	.	.	16b/JJ	.	16dd\JJ)	.	.	.	16b/JJ)	.	16dd\JJ)	.
4D/	.	4d\	.	4f#/)	.	4a/	.	4d/	-li	4f#/	-ry	4a/	-my
8BB/	.	8B/	.	8g/	.	8dd\	.	8B/	o-	8g/	Z je-	8dd\	przez
=7	=7	=7	=7	=7	=7	=7	=7	=7	=7	=7	=7	=7	=7
!	!	!	!	!	!	!LO:TX:t=P:problem:mixed beam	!	!	!	!	!	!	!
4C/	.	4c/	.	4g/	.	(8ee\L	.	4c/	fia-	4g/	-dne-	4ee\	-Cie-
.	.	.	.	.	.	8g/J)	.	.	.	.	.	.	.
8BB/	.	8B/	.	8g/	.	8dd'\	.	8B/	-ry	8g/	-go	8dd\	-bie
!	!	!	!	!	!	!LO:TUP:a:problem:klamra łukowa	!	!	!	!	!	!	!
4AA/	.	4A/	.	4f#/	.	(24dd\LL	.	4A/	Two-	4f#/	Oy-	(24dd\LL	wy-
.	.	.	.	.	.	24ee\	<	.	.	.	.	24ee\	.
.	.	.	.	.	.	24dd\JJ	.	.	.	.	.	24dd\JJ	.
.	.	.	.	.	.	8cc\L	.	.	.	.	.	8cc\)	.
8GG/	.	8G/	.	8g/	.	8b\J)	[[	8G/	-iej	8g/	-ca	8b\	-ba-
=8	=8	=8	=8	=8	=8	=8	=8	=8	=8	=8	=8	=8	=8
4C\	.	8G'/L	.	4g/	.	4ee\	>	(4c/	-go-	(4g/	sto-	4.ee^<\	wie-
.	.	(16c/L	.	.	.	.	.	.	.	.	.	.	.
.	.	16e/J	.	.	.	.	.	.	.	.	.	.	.
8E\	.	8g/J)	.	8cc\	.	8ee'\	]	8e/)	.	8cc\)	.	.	.
4G\	.	4g\	.	4b\	.	4dd\	.	4g/	-dni	4b\	-łu	4dd\	-ni
!	!	!	!	!	!	!	!LO:DY:a	!	!	!	!	!	!
8G#X\	.	8g#X\	sf	8b\	.	8ee^<\	sf	8g#X/	Na-	8b\	Je-	8ee\	Twój
=9	=9	=9	=9	=9	=9	=9	=9	=9	=9	=9	=9	=9	=9
4A\	.	4a\	.	(8a/L	.	(8cc/L	.	4a/	u-	4a/	-dna-	4cc\	-Chri-
.	.	.	.	8e/)	.	8e/)	.	.	.	.	.	.	.
8F#\	.	8f#\	.	8a'/J	.	8dd'/J	.	8f#/	-ki	8a/	-kie	8dd\	-ste
(8G\L	.	(8g\L	.	4g/	.	4b\	.	8g/L	Twe	4g/	bie-	4b\	zgon
8Fn\J)	.	8fn\J)	.	.	.	.	.	8fn/J	.	.	.	.	.
(16E\LL	.	8e'\	.	(16g/LL	.	(16dd\LL	.	16e/LL	peł-	(16g/LL	-rzem	(16dd\LL	swię-
16C\JJ)	.	.	.	16a/JJ)	.	16cc\JJ)	.	16c/JJ	.	16a/JJ)	.	16cc\JJ)	.
=10	=10	=10	=10	=10	=10	=10	=10	=10	=10	=10	=10	=10	=10
8D~\L	.	8d~\L	.	4g/	.	4b\	.	(4d/	-ni-	(>4g/	da-	(4b\	-cie-
(8D\	.	(8d\	.	.	.	.	.	.	.	.	.	.	.
8C\J)	.	8c\J)	.	8f#/	.	8a\	.	8c/)	.	8f#/)	.	8a\)	.
4.BB/	.	4.B/	.	4g/	.	(8dd\L	.	4B/	-li	4g/	-ry	4dd\	-my
.	.	.	.	.	.	8g\J)	.	.	.	.	.	.	.
.	.	.	.	8g/	.	8dd#X'\	.	8B/	Na-	8f#/	Je-	8dd#X\	Twój
!!LO:PB:g=original
=11	=11	=11	=11	=11	=11	=11	=11	=11	=11	=11	=11	=11	=11
4C/	.	4c\	.	(8g/L	.	(8ee\L	.	4c/	u-	4g/	-dna-	4ee\	-Chri-
.	.	.	.	8e/J)	.	8g\J)	.	.	.	.	.	.	.
8C#X/	.	8e\ 8c#X\	.	(8g'/	.	8a#X'\	.	8c#X/	-ki	8g/	-kie	8a#X\	-ste
4D\	.	4d\	.	4g/)	.	(8b\L	.	4d/	Twe	4g/	bie-	8b\L	zgon
.	.	.	.	.	.	8an\)	.	.	.	.	.	8an\J	.
8D\	.	8d\	.	8f#/	.	8dd'\J	.	8d/	peł-	8f#/	-rzem	8dd\	świę-
=12	=12	=12	=12	=12	=12	=12	=12	=12	=12	=12	=12	=12	=12
*	*	*	*	*tremolo	*	*	*	*	*	*	*	*	*
8E\	.	8e\	.	8g/L	.	8b'\	<	8e/	ni-	8g/	da-	8b\	-cie-
8BB/L	.	8B/L	.	8g/	.	(8dd\L	.	8B/	-li	8g/	-ry	8dd\	-my
8BB/J	.	8B/J	.	8g/J	.	8dd#X\J)	.	8B/	na-	8g/	Je-	8dd#X\	Twój
*	*	*	*	*Xtremolo	*	*	*	*	*	*	*	*	*
4C/	.	4c\	.	4g/	.	4ee\	[	4c/	-u-	4g/	-dna-	4ee\	Chri-
!	!	!	!	!	!LO:DY:b	!	!	!	!	!	!	!	!
8C#X/	.	8e\ 8c#X\	.	8b-X/ 8g/	sf	8gg\	sf	8c#X/	-ki	8b-X/	-kie	8gg\	-ste
=13	=13	=13	=13	=13	=13	=13	=13	=13	=13	=13	=13	=13	=13
4D\	.	4d\	.	8.bn/L 8.g/|	.	8.dd'\L	.	4d/	-Twe	(8.bn/L	-bie-	(8.dd\L	zgon
.	.	.	.	16a/K|	.	16cc'\K	.	.	.	16a/Jk)	.	16cc\Jk)	.
8D\	.	8d\	.	[8g/J|	.	8b\J|	.	8d/	peł-	8g/	-rzem	8b\	świę-
4.D\	.	4.d\	.	(>8g/L]	.	4a\	.	4.d/	-ni-	(8g/L	da-	(4a\	-cie-
.	.	.	.	16f#/L	.	.	.	.	.	16f#/L	.	.	.
.	.	.	.	16e/J	.	.	.	.	.	16e/J	.	.	.
.	.	.	.	8f#/J)	.	8dd\	.	.	.	8f#/J)	.	8dd\)	.
=14	=14	=14	=14	=14	=14	=14	=14	=14	=14	=14	=14	=14	=14
!LO:TX:t=P:problem:mixed beam	!	!	!	!	!	!	!	!	!	!	!	!	!
16G\LL	.	8g\	.	8g/L	.	8g/L	.	4g/	li.	4g/	ry	4g/	-my.
32r	.	.	.	.	.	.	.	.	.	.	.	.	.
32GG/JJk	.	.	.	.	.	.	.	.	.	.	.	.	.
[>4G/ [>4GG/	.	16r	.	16r	.	16r	.	.	.	.	.	.	.
.	.	(16B/LL	.	(16g/L	.	(<16g/L	.	.	.	.	.	.	.
.	.	16c/	.	16f#/	.	16a/	.	8r	.	8r	.	8r	.
.	.	16d/JJ)	.	16fn/JJ	.	16b/JJ	.	.	.	.	.	.	.
4.G/] 4.GG/]	.	(4e\	.	8e/L)	.	(4.cc\)	.	4r	.	4r	.	4r	.
.	.	.	.	8g/J	.	.	.	.	.	.	.	.	.
.	.	8e-X\	.	8a/ 8f/	.	.	.	8r	.	8r	.	8r	.
=15	=15	=15	=15	=15	=15	=15	=15	=15	=15	=15	=15	=15	=15
!LO:TX:t=P:problem:mixed beam	!	!	!	!	!	!	!	!	!	!	!	!	!
16.G\LL	.	8d\L)	.	8g/L	.	8b\L)	.	2.r	.	2.r	.	2.r	.
32GG/JJk	.	.	.	.	.	.	.	.	.	.	.	.	.
[>4G/ [>4GG/	.	16r	.	16r	.	16r	.	.	.	.	.	.	.
.	.	(16g\L	.	(16g/L	.	(16b\L	<	.	.	.	.	.	.
.	.	16f#X\	.	16a/	.	16cc\	.	.	.	.	.	.	.
.	.	16fn\JJ)	.	16b/JJ)	.	16dd\JJ	.	.	.	.	.	.	.
4.G/] 4.GG/]	.	(8e\L	.	(8cc\L	.	4ee\)	.	.	.	.	.	.	.
.	.	8c\J)	.	8g\J)	.	.	.	.	.	.	.	.	.
.	.	8e-X\	.	8cc\	.	8ff#\ 8a\	[	.	.	.	.	.	.
!!LO:LB:g=original
=16	=16	=16	=16	=16	=16	=16	=16	=16	=16	=16	=16	=16	=16
4.G\ 4.GG\	.	8e-X\	.	4.cc\	.	4.ff#\ 4.a\	.	4r	.	4r	.	4r	.
.	.	4d\	.	.	.	.	.	.	.	.	.	.	.
.	f	.	f	.	.	.	f	8r	.	8r	.	8r	.
8G\ 8GG\	.	8d/ 8G/	.	8b\	.	8gg\ 8b\ 8d\	.	4r	.	4r	.	4r	.
8r	.	8r	.	8r	.	8r	.	.	.	.	.	.	.
==:|	==:|	==:|	==:|	==:|	==:|	==:|	==:|	==:|	==:|	==:|	==:|	==:|	==:|
*-	*-	*-	*-	*-	*-	*-	*-	*-	*-	*-	*-	*-	*-
!!!system-decoration: {(s1,s2,s3)}[(s4,s5,s6,s7)]
!!!RDF**kern: > = above
!!!RDF**kern: < = below
!!!EED: Leszek Kubiak
!!!EST: 2021-04-27
!!!AIN: 1 empty 1 viola 2 violn 1 vox
!!!ENC: Mateusz Solarz
!!!END: 2021-04-09
!!!RDF**kern: | = vertical stroke
